X:1
T:O wretched man! - Wilbye
T:#
%%score 1 2 { 3 | 4 } 5
L:1/8
Q:1/4=120
M:4/4
K:Eb
V:1 treble nm="Soprano I"
V:2 treble nm="Soprano II"
V:3 treble nm="Alto I" snm="A"
V:4 treble 
V:5 treble-8 nm="Tenor" snm="T"
V:1
"^O wretched man! Why lov'st thou earthly life?""^John Wilbye\n (1574-1638)" z8 | z8 | z8 | z8 | %4
w: ||||
 z8 | z8 |!p! c8 | =e8 |[M:4/4] f8 | c8 | z4!pp! c4- | c4 B4- | B4 A4 | G8 | z4 c4 | c6 B2 | %16
w: ||O|wretch-|ed|man!|O|* wretch\-|* ed|man!|why|lov'st thou|
 A4 F4 | E8 | z8 | z8 | z4 z2"^cresc." c2 | f8- | f4 e4 | c2 _d2 e2 c2 | c2 (BA) B4 | c8 | z8 | %27
w: earth- ly|life?|||Which|nought|* en-|joys but cares and|end- less * trou-|ble;||
 z8 | z8 | z8 | z8 | z4 z2!mf! e2 | e6 B2 | c6 B2 | A4 B4 | G4 G4 | A4 z4 | z8 | z8 | z8 | z8 | %41
w: ||||What|plea- sure|here, but|breeds a|world of|grief?|||||
 z4!p! c4 | (c6 BA) | G2 c2 _e4- | e2 (_dc) B2 B2 | c4 A4 | z8 | z8 | z8 | z4"^cresc." _d4 | %50
w: What|hour's * *|ease, that an|* guish * doth not|dou- ble?||||No|
 _d4 d4 | c8- | c4 c4 | =d4 d4 | =e2 (f4 e2) | f8 | z8 | z8 | z4 B4 | c4 c4 | d2 (e4 d2) | e8 | %62
w: earth- ly|joys,|* but|have their|dis- con\- *|tents,|||but|have their|dis- con\- *|tents;|
 z8 | z8 | z4!mf! c4- | c4 B4- | B4 A4 | G4 z4 | z8 | z8 | c8 | =e8 | f8 | c8 | z4"^dim." c4- | %75
w: ||Then|* loathe|* that|life,|||then|loathe|that|life,|which|
 c4[Q:1/4=118] B4- |[Q:1/4=115] B4 A4[Q:1/4=114][Q:1/4=112][Q:1/4=109] | %77
w: * caus\-|* eth|
[Q:1/4=107] G4[Q:1/4=103] G4[Q:1/4=106][Q:1/4=105] |[Q:1/4=102] F16 |] %79
w: such la-|ments.|
V:2
 z4!p! c4- | c4 B4- | B4 A4 | G4 A4- | A4 G4- | G4 F4 | =E8 | z8 |[M:4/4] z8 |!pp! c8 | =e8 | f8 | %12
w: O|* wretch\-|* ed|man! O|* wretch\-|* ed|man!|||O|wretch-|ed|
 c8- | c4 c4 | c6 (BA) | G4 G4 | F8 | z4"^cresc." c4 | e6 e2 | _d4 c4 | c6 c2 | c2 (BA) B4 | c8 | %23
w: man!|* why|lov'st thou *|earth- ly|life?|Which|nought en-|joys but|cares and|end- less * trou-|ble;|
 z8 | z8 | z4 z2!mf! c2 | c6 f2 | _e6 e2 | f8- | f4 e4 | _d4 d4 | c8 | z8 | z8 | z8 | z8 | %36
w: ||What|plea- sure|her, but|breeds|* a|world of|grief?|||||
 z4 z2 e2 | e6 B2 | c6 B2 | A4 B4 | G4 G4 | F8 | z8 | z8 | z8 | z4 z2!p! c2 | (c6 BA) | %47
w: what|plea- sure|here, but|breeds a|world of|grief?||||What|hour's * *|
 G2 c2 _e4- | e2 (_dc) B2 B2 | c4 A4 | z8 | z8 | z8 | z8 | z8 | z4"^cresc." =A4 | B4 B4 | e6 e2 | %58
w: ease, that an|* guish * doth not|dou- ble?||||||but|have their|dis- con-|
 d8 | z8 | z8 | z4 G4 | A4 A4 | _d6 d2 | c8 | z8 | z8 | z4!mf! c4- | c4 B4- | B4 A4 | G8 | z8 | %72
w: tents,|||but|have their|dis- con-|tents;|||Then|* loathe|* that|life,||
 z8 |"^dim." c8 | =e8 | f8 | c8- | c4 c4 | c16 |] %79
w: |which|caus-|eth|such|* la-|ments.|
V:3
 z8 | z8 | z8 | z8 | z8 | z4!p! c4- | c4 B2 A2 | G8 |[M:4/4]!pp! F8 | =A6 B2 | c8 | z8 | z8 | %13
w: |||||O|* wretch- ed|man!|O|wretch- ed|man!|||
 z4 C4 | C4 F4 | F4 =E4 | F4"^cresc." A4 | c6 c2 | B4 G4 | A4 G4 | (E2 F2 G2) E2 | F8 | G8 | z8 | %24
w: why|lov'st thou|earth- ly|life? Which|nought en-|joys but|cares and|end\- * * less|trou-|ble;||
 z8 | z4 z2!mf! G2 | G3 G (AB) c2 | c4 c4 | A2 A2 (B4- | B2 A2) (A4- | A4 G4) | A6 c2 | c6 B2 | %33
w: |What|plea- sure here, * but|breeds, but|breeds a world|* * of||grief, what|plea- sure|
 A4 E4 | F3 E (DE F2- | F2 =ED) E4 | F4 z2 C2 | C3 D (EF) G2 | A2 E2 E4 | C2 (F3 E) D2 | C8- | %41
w: here, but|breeds a world * *|* * * of|grief, what|plea- sure here, * but|breeds a world,|a world * of|grief?|
 C4!p! A4 | (A6 GF) | =E2 C2 c3 c | B2 A2 B4 | A8 | A2 (A3 G F2) | E2 G2 c4- | c2 (BA) B4- | %49
w: * What|hour's * *|ease, that an- guish|doth not dou-|ble,|what hour's * *|ease than an\-|* guish * doth|
 B2 A2 (A4- | A4 G4) | A4"^cresc." A4 | G3 F G2 A2 | B4 c4 | B4 B4 | =A4 F4 | G4 G4 | =A2 (B4 A2) | %58
w: * not dou\-||ble? No|earth- ly joys but|have their|dis- con-|tents, but|have their|dis- con\- *|
 B4 F4 | _A4 B4 | A4 A4 | G4 E4 | F4 F4 | G2 (A4 G2) | A4!mf! A4 | G8 | F8 | =E8 | z8 | z4 c4- | %70
w: tents, but|have their|dis- con-|tents, but|have their|dis- con\- *|tents; Then|loathe|that|life,||then|
 c4 B2 A2 | G8 | F8 | =A6"^dim." B2 | c8 | z4 F4 | =E4 F4 | G6 G2 | =A16 |] %79
w: * loathe than|life,|then|loathe that|life,|which|caus- eth|such la-|ments.|
V:4
!p! C8 | =E8 | F8 | C8 | z8 | z8 | z8 | z4 c2 c2- |[M:4/4] c2 B2 =A2 G2 | F4 z2!pp! F2 | %10
w: O|wretch-|ed|man!||||why lov'st|* thou earth- ly|life? O|
 =E2 D2 C4- | C4 D4 | =E4 F4 | F4 =E4 | F8 | z8 | z4"^cresc." C4 | C4 A,4 | B,4 B,4 | A,4 z4 | z8 | %21
w: wretch- ed man!|* who|lov'st thou|earth- ly|life?||Which|nought en-|joys but|cares||
 z8 | z2 C2 (E2 F2 | G4) E4 | F8- | F4 =E4 | z2!mf! =E2 F2 A2 | G8 | F8 | _D4 E4 | F4 _D4 | E6 C2 | %32
w: |and end\- *|* less|trou\-|* ble;|What plea- sure|here,|but|breeds a|world of|grief, what|
 (C3 =D EF) G2 | A2 A,2 A,2 B,2 | C2 (F3 E D2 | C8) | C6 c2 | c6 B2 | A6 G2 | F3 E (DE F2- | %40
w: plea\- * * * sure|here, but breeds a|world of * *||grief, what|plea- sure|here, but|breeds a world * *|
 F2 =ED) E4 | F4!p! F4 | (F6 D2) | =E3 F G2 A2 | G2 A2 (A2 G2) | A6 E2 | E4 F4 | G4 E4 | E8 | %49
w: * * * of|grief? What|hour's *|ease, that an- guish|doth not dou\- *|ble, that|an- guish|doth not|dou-|
 E4 F4 | _D8 | E8 | E4 E4 | F4 F4 | G4 G4 | C4 C4 | E4 B,4 | C4 C4 | F4 D4 | E4 E4 | F6 F2 | %61
w: ble? No|earth-|ly|joys but|have their|dis- con-|tents, but|have their|dis- con-|tents, but|have their|dis- con-|
 B,4 B,4 | _D4 A,4 | B,4 B,4 | E8 | z8 | z8 | z4!mf! A4- | A4 G4- | G4 F4 | =E8 | z4 c2 c2- | %72
w: tents, but|have their|dis- con-|tents;|||Then|* loathe|* that|life,|which caus\-|
 c2 B2 =A2 G2 | F4 z2"^dim." F2 | =E2 D2 C4- | C2 C2 D2 D2 | C8 | C8 | C16 |] %79
w: * eth such la-|ments, then|loathe that life,|* which caus- eth|such|la-|ments.|
V:5
 z8 | z8 | z8 | z4!p! c4- | c4 B4- | B4 A4 | G8 | z8 |[M:4/4][K:treble-8]!pp! c8 | f8 | g8 | f8 | %12
w: |||O|* wretch\-|* ed|man!||O|wretch-|ed|man!|
 z8 | c8 | A4 F4 | c4 c4 | F8 | z8 | z8 | z8 | z4 z2"^cresc." c2 | A4 F4 | c6 _d2 | e4 c4 | _d8 | %25
w: |why|lov'st thou|earth- ly|life?||||Which|nought en-|joys but|end- less|trou-|
 c8 | z8 | z8 | z8 | z8 | z8 | z4 z2!mf! A2 | (A3 B c_d) e2 | A6 G2 | F4 B4 | c4 c4 | F4 z4 | z8 | %38
w: ble;||||||What|plea\- * * * sure|here, but|breeds a|world of|grief?||
 z8 | z8 | z8 | z4!p! F4 | (F3 G) A2 B2 | c6 (BA) | e4 e4 | A4 A4 | z8 | z8 | z8 | z8 | z8 | z8 | %52
w: |||What|hour's * ease, that|an- guish *|doth not|dou- ble?|||||||
 z4"^cresc." c4 | B4 A4 | G4 G4 | F8 | z8 | z8 | z4 B4 | A4 G4 | F4 F4 | E8 | z8 | z8 | z4!mf! A4 | %65
w: but|have their|dis- con-|tents,|||but|have their|dis- con-|tents;|||Then|
 E8 | F8 | c8 | z8 | c8 | =e6 f2 | g4 g4 | c8 | z8 | z4"^dim." g4 | f4 d4 | (=ef) (g4 f2- | %77
w: loathe|that|life,||which|caus- eth|such la-|ments,||which|caus- eth|such * la\- *|
 f2 =ed e4) | f16 |] %79
w: |ments.|

